storage/app/icons/phosphoricons/thin/couch-thin.svg

<svg xmlns="http://www.w3.org/2000/svg" fill="currentColor" viewBox="0 0 256 256"><path d="M236 108.7V72a12 12 0 0 0-12-12H32a12 12 0 0 0-12 12v36.7a12 12 0 0 0-8 11.3v48a12 12 0 0 0 12 12h12v20a4 4 0 0 0 8 0v-20h168v20a4 4 0 0 0 8 0v-20h12a12 12 0 0 0 12-12v-48a12 12 0 0 0-8-11.3M228 72v36h-12a12 12 0 0 0-12 12v20h-72V68h92a4 4 0 0 1 4 4M32 68h92v72H52v-20a12 12 0 0 0-12-12H28V72a4 4 0 0 1 4-4m204 100a4 4 0 0 1-4 4H24a4 4 0 0 1-4-4v-48a4 4 0 0 1 4-4h16a4 4 0 0 1 4 4v24a4 4 0 0 0 4 4h160a4 4 0 0 0 4-4v-24a4 4 0 0 1 4-4h16a4 4 0 0 1 4 4Z"/></svg>

<svg xmlns="http://www.w3.org/2000/svg" viewBox="0 0 256 256" fill="currentColor"><path d="M236,108.7V72a12,12,0,0,0-12-12H32A12,12,0,0,0,20,72v36.7A12,12,0,0,0,12,120v48a12,12,0,0,0,12,12H36v20a4,4,0,0,0,8,0V180H212v20a4,4,0,0,0,8,0V180h12a12,12,0,0,0,12-12V120A12,12,0,0,0,236,108.7ZM228,72v36H216a12,12,0,0,0-12,12v20H132V68h92A4,4,0,0,1,228,72ZM32,68h92v72H52V120a12,12,0,0,0-12-12H28V72A4,4,0,0,1,32,68ZM236,168a4,4,0,0,1-4,4H24a4,4,0,0,1-4-4V120a4,4,0,0,1,4-4H40a4,4,0,0,1,4,4v24a4,4,0,0,0,4,4H208a4,4,0,0,0,4-4V120a4,4,0,0,1,4-4h16a4,4,0,0,1,4,4Z"/></svg>
